X:90
T:Big John McNeil
R:reel
C:Trad
M:2/4
L:1/16
Q:1/4=200
K:A
A2|:A,2CE FECE|AECE FECE|A,2CE FECE|
FAGF EDCB,|A,2CE FECE|AECE FECE|A,CB,D CEDF|
EGBd cA:|
:cd|eAfA eAcd|eAfA e2 (3agf|eAfA eAce|
daca B2cd|eAfA eAcd|eAfA e2fg|agfe fece|
defg a2:|
